flaticon/household/bathtub-1.svg

<svg xmlns="http://www.w3.org/2000/svg" width="32" height="32" viewBox="0 0 24 24">
    <path d="M5.601562 9.199219C5.820312 9.199219 6 9.019531 6 8.800781L6 4.398438C6 4.179688 5.820312 4 5.601562 4 5.378906 4 5.199219 4.179688 5.199219 4.398438L5.199219 8.800781C5.199219 9.019531 5.378906 9.199219 5.601562 9.199219zM7.199219 12C7.421875 12 7.601562 11.820312 7.601562 11.601562L7.601562 6.800781C7.601562 6.578125 7.421875 6.398438 7.199219 6.398438 6.980469 6.398438 6.800781 6.578125 6.800781 6.800781L6.800781 11.601562C6.800781 11.820312 6.980469 12 7.199219 12zM8.800781 10.800781C9.019531 10.800781 9.199219 10.621094 9.199219 10.398438L9.199219 5.199219C9.199219 4.980469 9.019531 4.800781 8.800781 4.800781 8.578125 4.800781 8.398438 4.980469 8.398438 5.199219L8.398438 10.398438C8.398438 10.621094 8.578125 10.800781 8.800781 10.800781zM10.800781 12.800781C11.019531 12.800781 11.199219 12.621094 11.199219 12.398438L11.199219 8C11.199219 7.777344 11.019531 7.601562 10.800781 7.601562 10.578125 7.601562 10.398438 7.777344 10.398438 8L10.398438 12.398438C10.398438 12.621094 10.578125 12.800781 10.800781 12.800781zM10.800781 12.800781"/>
    <path d="M 23.402344 0.0742188 C 23.042969 -0.0742188 22.628906 0.0078125 22.351562 0.285156 L 21.316406 1.320312 C 20.414062 0.632812 19.117188 0.691406 18.292969 1.515625 C 18.136719 1.671875 18.136719 1.925781 18.292969 2.082031 L 21.121094 4.910156 C 21.195312 4.984375 21.296875 5.027344 21.402344 5.027344 C 21.507812 5.027344 21.613281 4.984375 21.6875 4.910156 C 22.511719 4.082031 22.570312 2.789062 21.878906 1.886719 L 22.917969 0.847656 C 22.984375 0.78125 23.058594 0.796875 23.097656 0.8125 C 23.136719 0.828125 23.199219 0.871094 23.199219 0.96875 L 23.199219 12.875 C 23.074219 12.828125 22.941406 12.800781 22.800781 12.800781 L 13.199219 12.800781 L 13.199219 2.800781 C 13.199219 2.578125 13.019531 2.398438 12.800781 2.398438 L 12.398438 2.398438 L 12.398438 1.601562 L 14.800781 1.601562 C 15.019531 1.601562 15.199219 1.421875 15.199219 1.199219 C 15.199219 0.980469 15.019531 0.800781 14.800781 0.800781 L 12.398438 0.800781 L 12.398438 0.398438 C 12.398438 0.179688 12.222656 0 12 0 C 11.777344 0 11.601562 0.179688 11.601562 0.398438 L 11.601562 0.800781 L 11.199219 0.800781 L 11.199219 0.398438 C 11.199219 0.179688 11.019531 0 10.800781 0 C 10.578125 0 10.398438 0.179688 10.398438 0.398438 L 10.398438 0.800781 L 10 0.800781 L 10 0.398438 C 10 0.179688 9.820312 0 9.601562 0 C 9.378906 0 9.199219 0.179688 9.199219 0.398438 L 9.199219 0.800781 L 8.800781 0.800781 L 8.800781 0.398438 C 8.800781 0.179688 8.621094 0 8.398438 0 C 8.179688 0 8 0.179688 8 0.398438 L 8 0.800781 L 7.601562 0.800781 L 7.601562 0.398438 C 7.601562 0.179688 7.421875 0 7.199219 0 C 6.980469 0 6.800781 0.179688 6.800781 0.398438 L 6.800781 0.800781 L 6.398438 0.800781 L 6.398438 0.398438 C 6.398438 0.179688 6.222656 0 6 0 C 5.777344 0 5.601562 0.179688 5.601562 0.398438 L 5.601562 0.800781 L 5.199219 0.800781 L 5.199219 0.398438 C 5.199219 0.179688 5.019531 0 4.800781 0 C 4.578125 0 4.398438 0.179688 4.398438 0.398438 L 4.398438 0.800781 L 2 0.800781 C 1.777344 0.800781 1.601562 0.980469 1.601562 1.199219 C 1.601562 1.421875 1.777344 1.601562 2 1.601562 L 4.398438 1.601562 L 4.398438 2.398438 L 4 2.398438 C 3.777344 2.398438 3.601562 2.578125 3.601562 2.800781 L 3.601562 12.800781 L 1.199219 12.800781 C 0.539062 12.800781 0 13.339844 0 14 C 0 14.550781 0.375 15.011719 0.882812 15.152344 L 2.304688 20.265625 C 2.585938 21.289062 3.40625 22.046875 4.398438 22.300781 L 4.398438 23.601562 C 4.398438 23.820312 4.578125 24 4.800781 24 L 6 24 C 6.152344 24 6.289062 23.914062 6.359375 23.777344 L 7.046875 22.398438 L 16.953125 22.398438 L 17.640625 23.777344 C 17.710938 23.914062 17.847656 24 18 24 L 19.199219 24 C 19.421875 24 19.601562 23.820312 19.601562 23.601562 L 19.601562 22.300781 C 20.59375 22.046875 21.414062 21.289062 21.695312 20.265625 L 23.117188 15.152344 C 23.625 15.011719 24 14.550781 24 14 L 24 0.96875 C 24 0.574219 23.765625 0.226562 23.402344 0.0742188 Z M 21.367188 4.023438 L 19.179688 1.835938 C 19.753906 1.507812 20.5 1.589844 20.988281 2.082031 L 21.121094 2.210938 C 21.609375 2.703125 21.691406 3.449219 21.367188 4.023438 Z M 22.800781 13.601562 C 23.019531 13.601562 23.199219 13.777344 23.199219 14 C 23.199219 14.222656 23.019531 14.398438 22.800781 14.398438 L 13.199219 14.398438 L 13.199219 13.601562 Z M 11.601562 1.601562 L 11.601562 2.398438 L 11.199219 2.398438 L 11.199219 1.601562 Z M 10.398438 1.601562 L 10.398438 2.398438 L 10 2.398438 L 10 1.601562 Z M 9.199219 1.601562 L 9.199219 2.398438 L 8.800781 2.398438 L 8.800781 1.601562 Z M 8 1.601562 L 8 2.398438 L 7.601562 2.398438 L 7.601562 1.601562 Z M 6.800781 1.601562 L 6.800781 2.398438 L 6.398438 2.398438 L 6.398438 1.601562 Z M 5.199219 1.601562 L 5.601562 1.601562 L 5.601562 2.398438 L 5.199219 2.398438 Z M 4.398438 3.199219 L 12.398438 3.199219 L 12.398438 17.199219 L 4.398438 17.199219 Z M 1.199219 13.601562 L 3.601562 13.601562 L 3.601562 14.398438 L 1.199219 14.398438 C 0.980469 14.398438 0.800781 14.222656 0.800781 14 C 0.800781 13.777344 0.980469 13.601562 1.199219 13.601562 Z M 5.753906 23.199219 L 5.199219 23.199219 L 5.199219 22.398438 L 6.152344 22.398438 Z M 18.800781 23.199219 L 18.246094 23.199219 L 17.847656 22.398438 L 18.800781 22.398438 Z M 20.925781 20.054688 C 20.671875 20.964844 19.835938 21.601562 18.890625 21.601562 L 5.109375 21.601562 C 4.164062 21.601562 3.328125 20.964844 3.074219 20.054688 L 1.726562 15.199219 L 3.601562 15.199219 L 3.601562 18 L 13.199219 18 L 13.199219 15.199219 L 22.273438 15.199219 Z M 20.925781 20.054688"/>
</svg>

<svg xmlns="http://www.w3.org/2000/svg" width="32" height="32" viewBox="0 0 24 24">
    <path d="M5.602 9.2A.4.4 0 0 0 6 8.8V4.399a.4.4 0 0 0-.8 0v4.403c0 .219.179.398.402.398zm0 0M7.2 12c.222 0 .402-.18.402-.398V6.8a.401.401 0 0 0-.8 0L6.8 11.6a.4.4 0 0 0 .398.399zm0 0M8.8 10.8c.22 0 .4-.179.4-.402V5.2a.4.4 0 0 0-.802 0v5.2c0 .222.18.402.403.402zm0 0M10.8 12.8c.22 0 .4-.179.4-.402V8a.398.398 0 0 0-.4-.398.398.398 0 0 0-.402.398v4.398c0 .223.18.403.403.403zm0 0"/>
    <path d="M23.402.074a.964.964 0 0 0-1.05.211L21.316 1.32a2.305 2.305 0 0 0-3.023.196.4.4 0 0 0 0 .566l2.828 2.828a.4.4 0 0 0 .567 0 2.3 2.3 0 0 0 .19-3.023l1.04-1.04a.159.159 0 0 1 .18-.034.16.16 0 0 1 .101.156v11.906a1.128 1.128 0 0 0-.398-.074h-9.602v-10a.401.401 0 0 0-.398-.403h-.403v-.796h2.403a.401.401 0 0 0 0-.801h-2.403V.398a.398.398 0 1 0-.796 0v.403h-.403V.398a.4.4 0 0 0-.8 0v.403H10V.398a.4.4 0 0 0-.8 0v.403h-.4V.398a.401.401 0 0 0-.8 0v.403h-.398V.398a.401.401 0 0 0-.801 0v.403h-.403V.398a.398.398 0 1 0-.796 0v.403h-.403V.398a.4.4 0 0 0-.8 0v.403H2a.398.398 0 0 0-.398.398c0 .223.175.403.398.403h2.398v.796H4a.398.398 0 0 0-.398.403v10H1.199C.54 12.8 0 13.34 0 14c0 .55.375 1.012.883 1.152l1.422 5.114A2.91 2.91 0 0 0 4.398 22.3v1.3c0 .22.18.399.403.399H6c.152 0 .29-.086.36-.223l.687-1.379h9.906l.688 1.38c.07.136.207.222.359.222h1.2c.222 0 .402-.18.402-.398V22.3a2.91 2.91 0 0 0 2.093-2.035l1.422-5.114c.508-.14.883-.601.883-1.152V.969a.965.965 0 0 0-.598-.895zm-2.035 3.95L19.18 1.835a1.502 1.502 0 0 1 1.808.246l.133.129a1.52 1.52 0 0 1 .246 1.812zm1.434 9.578a.398.398 0 1 1 0 .796h-9.602v-.796zm-11.2-12v.796H11.2v-.796zm-1.203 0v.796H10v-.796zm-1.199 0v.796h-.398v-.796zM8 1.602v.796h-.398v-.796zm-1.2 0v.796h-.402v-.796zm-1.6 0h.402v.796h-.403zm-.802 1.597h8v14h-8zM1.2 13.602h2.403v.796H1.199a.398.398 0 1 1 0-.796zm4.555 9.597h-.555v-.8h.953zm13.047 0h-.555l-.398-.8h.953zm2.125-3.144a2.12 2.12 0 0 1-2.035 1.547H5.109a2.12 2.12 0 0 1-2.035-1.547l-1.347-4.856h1.875V18h9.597v-2.8h9.074zm0 0"/>
</svg>
